packages/astro-components-stencil/src/icons/call-missed-outgoing.svg

<svg width="24" height="24" viewBox="0 0 24 24" fill="none" xmlns="http://www.w3.org/2000/svg">
<path d="M3.69998 9.11L11.29 16.7C11.68 17.09 12.31 17.09 12.7 16.7L19 10.4V14C19 14.55 19.45 15 20 15C20.55 15 21 14.55 21 14V8C21 7.45 20.55 7 20 7H14C13.45 7 13 7.45 13 8C13 8.55 13.45 9 14 9H17.59L12 14.59L5.10998 7.7C4.71998 7.31 4.08998 7.31 3.69998 7.7C3.31998 8.09 3.31998 8.73 3.69998 9.11Z" fill="black"/>
</svg>

<svg xmlns="http://www.w3.org/2000/svg" viewBox="0 0 24 24"><g xmlns="http://www.w3.org/2000/svg" id="call-missed-outgoing" fill-rule="nonzero">
            <path d="M3.7 9.11l7.59 7.59c.39.39 1.02.39 1.41 0l6.3-6.3V14c0 .55.45 1 1 1s1-.45 1-1V8c0-.55-.45-1-1-1h-6c-.55 0-1 .45-1 1s.45 1 1 1h3.59L12 14.59 5.11 7.7a.996.996 0 00-1.41 0c-.38.39-.38 1.03 0 1.41z"/>
        </g></svg>
